X:1
T:Lord Mayo
C:David Murphy
L:1/8
Q:360
K:Ador
M:2/4
|: D2 C2 | D2 E/G/E | GA AB | AG E/=F/G | A2 D2 | D2 ED | CD CB, | A,2 A,2 | D2 C2 | \
 D2 E2 | GA AB | c3B | GA AB | AG E/D/C | D4 |1 z2 A,2 :|2 z2 A2 | d2 d2 | cA cd | \
 ez e2 | zd c2 | A/c/A G2 | GA c2 | C3D | C2 A,2 | d2 d2 | cA cd | ez e2 | zd c2 | \
 A/c/A G2 | GA c2 | d3e | d2 A/B/c | d2 d2 | cA cd | ez e2 | zd c2 | A2 G2 | GA c2 | \
 C3D | C2 A,2 | DC DE | G2 E2 | D2 C2 | c3A | G3D | E/=F/G EC | D2 D2 | D2 A,2 | \
W:Created with TablEdit http://www.tabledit.com/
